!!!!SEGMENT: pl-wtm--r-245-n--003_noskowski-zygmunt--piesni-ludowe-kedy-jedziesz.krn
!!!cenid: 18xx:2150
!!!COM: Noskowski, Zygmunt
!!!COM-rism: pe106604
!!!CDT: 1846/05/02-1909/07/23
!!!CNT: Polish
!!!OTL: Pieśni ludowe – Kędy jedziesz
!!!PDT:
!!!AGN: Secular; Song
!!!SMS-siglum: PL-Wtm
!!!SMS-shelfmark: R 245/N
!!!NIFC-rismID: 1001100023
!!!URL-scan: http://repozytorium.nifc.pl/skany/pl-wtm-nut--r245n
!!!ONB-nifc: UWAGA: w zbiorze: 1. Młynarz, 2. Na Mazurze, 3. Kędy jedziesz?, 4. Hasło Liry Łódzkiej
!!!SMS-variant:
!!!SMS-altvar:
!!!OMD: Andantino cantabile
**kern	**dynam	**kern	**text	**text	**text	**dynam
*part2	*part2	*part1	*part1	*part1	*part1	*part1
*staff2	*	*staff1	*staff1	*staff1	*staff1	*
*I"Basy	*	*I"Tenory	*	*	*	*
*clefF4	*	*clefG2	*	*	*	*
*	*	*ITrd7c12	*	*	*	*
*k[b-e-]	*	*k[b-e-]	*	*	*	*
*M4/4	*	*M4/4	*	*	*	*
*met(c)	*	*met(c)	*	*	*	*
*>[A,A,A]	*>[A,A,A]	*>[A,A,A]	*>[A,A,A]	*>[A,A,A]	*>[A,A,A]	*>[A,A,A]
=1	=1	=1	=1	=1	=1	=1
*>A	*>A	*>A	*>A	*>A	*>A	*>A
*^	*	*^	*	*	*	*^
!	!	!	!LO:TX:t=P:problem:dwie zwrotki mf, ostatnia zwrotka piano	!	!	!	!	!	!
!	!	!LO:DY:rj	!LO:TX:a:t=Kędy jedziesz? Melodja ludowa \nułożył Z. Noskowski	!	!	!	!	!LO:DY:b:rj	!LO:DY:b:rj
4B-/	4BB-\	mf	4f/	4d\	Kę-	A	Oj	mf	p
8F/	8C\	.	8e-/	8A\	-dy	toć	grzecz-	.	.
8F/	8D\	.	8d/	8B-\	tam	się	-na	.	.
4A-X/	4D\	.	4f/	4B-\	je-	u-	grzecz-	.	.
(8G/L	(8E-\L	.	(8g/L	(8B-\L	-dziesz	-da	-na	.	.
8A-/J)	8F\J)	.	8f/J)	8d\J)	.	.	.	.	.
*	*	*	*	*	*	*	*	*v	*v
=2	=2	=2	=2	=2	=2	=2	=2	=2
(8G/L	(8G\L	.	(<8e-/L	4B-\	Ja-	bo	i	.
8F/J)	8F\J)	.	8d/J)	.	.	.	.	.
8E-/	8E-\	.	8c/	8G\	-siu	u-	u-	.
8D/	8D\	.	8B-/	8F\	ko-	-ro-	-rod-	.
4En/	4C\	.	4d/	4B-\	-cha-	-dli-	-li-	.
!LO:TX:t=P:problem:dwie oddzielne nuty	!	!	!	!	!	!	!	!
4F/	(8F\L	.	4c/	4A\	-nie?	-wa	-wa	.
.	8E-X\J)	.	.	.	.	.	.	.
=3	=3	=3	=3	=3	=3	=3	=3	=3
4F/	(>8D\L	.	4d/	4B-\	Tam	Lecz	war-	.
.	8C\J)	.	.	.	.	.	.	.
8B-/	8BB-\	.	8f/	8d\	do	do	-ko-	.
8G/	8C\	.	8e-/	8c\	War-	ro-	-czyk	.
4G/	4GG\	.	4d/	4B-\	-sza-	-bo-	ple-	.
(8E-/L	(8AA\L	.	(8c/L	(8A\L	-wy	-ty	-cie	.
8D/J)	8BB-\J)	.	8B-/J)	8G\J)	.	.	.	.
!!LO:LB:g=original
=4	=4	=4	=4	=4	=4	=4	=4	=4
4F/	4D\	.	(8A/L	(8A\L	na	tro-	rącz-	.
.	.	.	8B-/J)	8B-\J)	.	.	.	.
8En/	8C\	.	8c/	8c\	za-	-chę	-ki	.
8E/	8C\	>	8A/	8A\	-le-	le-	u-	>
4F/	4F\	.	4F/	4F\	-ca-	-ni-	-my-	.
4F/	(8FF\L	]	4F/	4F\	-nie.	-wa	-wa.	]
.	8GG\J)	.	.	.	.	.	.	.
=5	=5	=5	=5	=5	=5	=5	=5	=5
!	!	!	!	!	!	!	!	!LO:DY:rj
4E-X/	(8AA\L	p	4F/	4F\	Za-	Za-	Przy-	p
.	8BB-\J)	.	.	.	.	.	.	.
8E-/	8C\	.	8A/	8A\	-le-	-le-	-je-	.
8C/	8AA\	.	8F/	8F\	-caj-	-caj-	-chał	.
4D/	4GG\	.	4B-/	4G\	-że	-że	do	.
4F/	4FF\	.	4c/	4A\	się	się	niej	.
=6	=6	=6	=6	=6	=6	=6	=6	=6
4F/	4BB-\	.	4d/	4B-\	a-	a-	w sa-	.
8E-/	8C\	.	8c/	8A\	-le	-le	-mo	.
8F/	8D\	.	8B-/	8B-\	wiedʒ	wiedʒ	świ-	.
(8G/L	(8G\L	.	(8e-/L	(8B-\L	ko-	ko-	-ta-	.
8F/J)	8F\J)	.	8d/J)	8A\J)	.	.	.	.
(8E-/L	(8E-\L	.	(8c/L	(8G\L	-mu	-mu	-nie	.
8F/J)	8D\J)	.	8B-/J)	8B-\J)	.	.	.	.
!!LO:LB:g=original
=7	=7	=7	=7	=7	=7	=7	=7	=7
(8F/L	(8D\L	<	(8d/L	(8B\L	jak	jeś-	jak-	<
8G/J)	8C\J)	.	8e-/J)	8c\J)	.	.	.	.
8G/	8BBn\	[	8f/	8d\	się	-li	-że	[
8G/	8C\	.	8e-/	8c\	nie	nie	się	.
(8F#X/L	(>8D\L	.	4d/	4A\	u-	grzecz-	tu	.
8D/J)	8FF#X\J)	.	.	.	.	.	.	.
(<8D/L	4GG\	.	(<8c/L	4G\	-da	-na	masz	.
8En/J)	.	.	8B/J)	.	.	.	.	.
=8	=8	=8	=8	=8	=8	=8	=8	=8
(<8F/L	4FF\	.	(8A/L	(8A\L	przy-	wra-	dziew-	.
8En/J)	.	.	8B-/J)	8G\J)	.	.	.	.
8E-X/	8FF\	>	8c/	8A\	-jedź	-caj	-czę	>
8E-/	8C\	.	8A/	8F\	do	do	ko-	.
(8E-/L	4BB-\	.	4B-/	4F\	do-	do-	-cha-	]
8C#X/J)	.	]	.	.	.	.	.	.
4D;/	4BB-;\	.	4B-;/	4F;\	-mu.	-mu	-nie.	.
*v	*v	*	*	*	*	*	*	*
*	*	*v	*v	*	*	*	*
==:|!	==:|!	==:|!	==:|!	==:|!	==:|!	==:|!
*-	*-	*-	*-	*-	*-	*-
!!!system-decoration: {(s1,s2)}
!!!RDF**kern: > = above
!!!RDF**kern: < = below
!!!ENC: Marta Lawrence
!!!END: 2021-06-01
!!!ENC: Tomasz Grochalski
!!!END: 2021-05-22
